src/next/cmd/ko/lc_datasort.svg

<svg height="24" viewBox="0 0 6.3499999 6.3500003" width="24" xmlns="http://www.w3.org/2000/svg" xmlns:xlink="http://www.w3.org/1999/xlink"><linearGradient id="a" gradientTransform="matrix(.12571453 0 0 -.12571453 6.457134 17.102049)" gradientUnits="userSpaceOnUse" x1="87.231171" x2="114.63911" y1="26.212187" y2="128.5"><stop offset="0" stop-color="#2c72c7"/><stop offset="1" stop-color="#00438a"/></linearGradient><linearGradient id="b" gradientTransform="matrix(.12571453 0 0 -.12571453 6.457134 17.102049)" gradientUnits="userSpaceOnUse" x1="114.37838" x2="112.9539" y1="42.286964" y2="132.19691"><stop offset="0" stop-color="#bbd6ff"/><stop offset="1" stop-color="#0057ae"/></linearGradient><linearGradient id="c" gradientUnits="userSpaceOnUse" x1="124.5" x2="135.74562" y1="125" y2="2.932803"><stop offset="0" stop-color="#fff"/><stop offset="1" stop-color="#fff" stop-opacity="0"/></linearGradient><linearGradient id="d" gradientTransform="matrix(.26458334 0 0 -.26458334 13.60198 282.33623)" gradientUnits="userSpaceOnUse" x1="104" x2="104" y1="124.5" y2="61.61084"><stop offset="0" stop-color="#d4e2f3"/><stop offset="1" stop-color="#fff" stop-opacity="0"/></linearGradient><radialGradient id="e" cx="56" cy="66" gradientTransform="matrix(1.3633683 0 0 2.5290688 -28.848628 -99.010812)" gradientUnits="userSpaceOnUse" r="48"><stop offset="0" stop-color="#fff"/><stop offset="1" stop-color="#eee"/></radialGradient><filter id="f"><feGaussianBlur stdDeviation=".385"/></filter><g transform="matrix(.12571453 0 0 .12571453 -.001516 -30.968848)"><g transform="matrix(.26458333 0 0 .32445256 6.482292 251.68381)"><path d="m-16.499882-9.9753983h143.181542l-.00012 143.5289683h-143.18154z" style="opacity:.5;fill:none;stroke:#000;stroke-width:7.224297;stroke-linecap:round;stroke-linejoin:round"/><path d="m-16.499882-9.9753983h143.181542l-.00012 143.1212283h-143.18154z" fill="#fff"/><path d="m-8.499882-3.7819413h127.181542l-.00012 130.4039613h-127.18154z" fill="url(#e)"/></g><g transform="matrix(2.1046361 0 0 2.1046361 .012062 246.34263)"><path d="m18.525391 1.4511719-2.513672 2.5136719h2.011719l-.001954 1.234375h-.027343l.013671 6.9003902-.013671 6.900391h.027343l.001954 1.234375h-2.011719l2.513672 2.513672 2.513671-2.513672h-2.009765l-.015625-8.134766.015625-8.1347652h2.009765z" fill="none" stroke="#fff" stroke-linecap="round" stroke-linejoin="round" stroke-width="2.011432"/><path d="m19.53125 1.1992188-2.513672 2.765625h2.011719l-.001953 1.234375h-.027344l.013672 6.9003902-.013672 6.900391h.027344l.001953 1.234375h-2.011719l2.513672 2.765625 2.513672-2.765625h-2.009766l-.015625-8.134766.015625-8.1347652h2.009766z" fill="none" stroke="url(#a)" stroke-linecap="round" stroke-linejoin="round" stroke-width="2.011432"/><path d="m19.53125 1.4511719-2.513672 2.5136719h2.011719l-.001953 1.234375h-.027344l.013672 6.9003902-.013672 6.900391h.027344l.001953 1.234375h-2.011719l2.513672 2.513672 2.513672-2.513672h-2.009766l-.015625-8.134766.015625-8.1347652h2.009766z" fill="url(#b)" fill-rule="evenodd" stroke-width=".125715"/></g><path d="m104 124.5-20-20h16v-64h8v64h16z" fill="none" filter="url(#f)" opacity=".898396" stroke="url(#c)" transform="matrix(.26458333 0 0 -.26458333 13.60198 282.33622)"/><path d="m41.118647 249.3956-5.291666 5.29166h4.233333v14.59343c.722114-.18324 1.429851-.38502 2.116667-.60358v-13.98985h4.233333z" fill="url(#d)" fill-rule="evenodd" stroke-width=".264583"/><g stroke-width="7.95453" transform="matrix(.171875 0 0 .171875 4.21935 243.727)"><rect fill="#696969" height="12.244893" rx="4.048251" ry="3.512776" width="122.44982" x="36.747013" y="76.444237"/><rect fill="#696969" height="12.244989" rx="3.641274" ry="3.512808" transform="rotate(90)" width="48.979813" x="76.444237" y="-159.19685"/><g fill="#2568b6"><rect height="12.244909" rx="3.755127" ry="3.512784" width="50.511265" x="71.95063" y="149.91417"/><rect height="12.24498" rx="3.581209" ry="2.739636" width="122.44982" x="36.747013" y="174.40407"/><rect height="12.244909" rx="5.461931" ry="3.512784" width="73.46991" x="61.236984" y="198.89418"/><rect height="12.244909" rx="5.461931" ry="3.512784" width="73.46991" x="61.236973" y="235.62901"/><g transform="rotate(90)"><rect height="12.244909" rx="3.641282" ry="3.512784" width="48.979927" x="198.89394" y="-73.481888"/><rect height="12.244909" rx="3.641282" ry="3.512784" width="48.979927" x="198.89394" y="-134.70689"/></g></g></g></g></svg>

<?xml version="1.0" encoding="UTF-8" standalone="no"?>
<svg
   xmlns:dc="http://purl.org/dc/elements/1.1/"
   xmlns:cc="http://creativecommons.org/ns#"
   xmlns:rdf="http://www.w3.org/1999/02/22-rdf-syntax-ns#"
   xmlns:svg="http://www.w3.org/2000/svg"
   xmlns="http://www.w3.org/2000/svg"
   xmlns:xlink="http://www.w3.org/1999/xlink"
   xmlns:sodipodi="http://sodipodi.sourceforge.net/DTD/sodipodi-0.dtd"
   xmlns:inkscape="http://www.inkscape.org/namespaces/inkscape"
   height="24"
   viewBox="0 0 6.3499999 6.3500003"
   width="24"
   version="1.1"
   id="svg79"
   sodipodi:docname="lc_datasort.svg"
   inkscape:export-filename="/home/rizmut/Dokumen/Rizmut/Github/libreoffice-style-karasa-jaga/build/next/cmd/ko/lc_datasort.png"
   inkscape:export-xdpi="96"
   inkscape:export-ydpi="96"
   inkscape:version="0.92.4 (unknown)">
  <metadata
     id="metadata85">
    <rdf:RDF>
      <cc:Work
         rdf:about="">
        <dc:format>image/svg+xml</dc:format>
        <dc:type
           rdf:resource="http://purl.org/dc/dcmitype/StillImage" />
        <dc:title></dc:title>
      </cc:Work>
    </rdf:RDF>
  </metadata>
  <defs
     id="defs83">
    <linearGradient
       inkscape:collect="always"
       xlink:href="#e"
       id="linearGradient1030"
       gradientUnits="userSpaceOnUse"
       x1="87.231171"
       y1="26.212187"
       x2="114.63911"
       y2="128.5"
       gradientTransform="matrix(0.12571453,0,0,-0.12571453,6.4571343,17.102049)" />
    <linearGradient
       inkscape:collect="always"
       xlink:href="#f"
       id="linearGradient1032"
       gradientUnits="userSpaceOnUse"
       x1="114.37838"
       y1="42.286964"
       x2="112.9539"
       y2="132.19691"
       gradientTransform="matrix(0.12571453,0,0,-0.12571453,6.4571343,17.102049)" />
    <linearGradient
       inkscape:collect="always"
       xlink:href="#g"
       id="linearGradient1034"
       gradientUnits="userSpaceOnUse"
       x1="124.5"
       y1="125"
       x2="135.74562"
       y2="2.9328029" />
    <linearGradient
       id="i-3"
       gradientUnits="userSpaceOnUse"
       x1="104"
       x2="104"
       y1="124.5"
       y2="61.61084">
      <stop
         offset="0"
         stop-color="#d4e2f3"
         id="stop32-6" />
      <stop
         offset="1"
         stop-color="#fff"
         stop-opacity="0"
         id="stop34-7" />
    </linearGradient>
    <linearGradient
       inkscape:collect="always"
       xlink:href="#i-3"
       id="linearGradient1036"
       gradientUnits="userSpaceOnUse"
       x1="104"
       y1="124.5"
       x2="104"
       y2="61.61084"
       gradientTransform="matrix(0.26458334,0,0,-0.26458334,13.60198,282.33623)" />
  </defs>
  <sodipodi:namedview
     pagecolor="#ffffff"
     bordercolor="#666666"
     borderopacity="1"
     objecttolerance="10"
     gridtolerance="10"
     guidetolerance="10"
     inkscape:pageopacity="0"
     inkscape:pageshadow="2"
     inkscape:window-width="1366"
     inkscape:window-height="714"
     id="namedview81"
     showgrid="true"
     inkscape:zoom="14.75"
     inkscape:cx="7.2491277"
     inkscape:cy="13.659503"
     inkscape:window-x="0"
     inkscape:window-y="28"
     inkscape:window-maximized="1"
     inkscape:current-layer="g77">
    <inkscape:grid
       type="xygrid"
       id="grid895" />
  </sodipodi:namedview>
  <radialGradient
     id="a"
     cx="56"
     cy="66"
     gradientTransform="matrix(1.3633683,0,0,2.5290688,-28.848628,-99.010812)"
     gradientUnits="userSpaceOnUse"
     r="48">
    <stop
       offset="0"
       stop-color="#fff"
       id="stop2" />
    <stop
       offset="1"
       stop-color="#eee"
       id="stop4" />
  </radialGradient>
  <linearGradient
     id="b"
     gradientTransform="matrix(0.22678575,0,0,0.3175,4.5116853,248.84654)"
     gradientUnits="userSpaceOnUse"
     x1="86.50396"
     x2="86.50396"
     xlink:href="#c"
     y1="37.416798"
     y2="8.6113396" />
  <linearGradient
     id="c">
    <stop
       offset="0"
       stop-color="#ececec"
       id="stop8" />
    <stop
       offset="1"
       stop-color="#8696aa"
       id="stop10" />
  </linearGradient>
  <linearGradient
     id="d"
     gradientTransform="matrix(0.22678575,0,0,0.3175,4.5116853,265.77987)"
     gradientUnits="userSpaceOnUse"
     x1="86.50396"
     x2="86.50396"
     xlink:href="#c"
     y1="37.416798"
     y2="8.6113396" />
  <linearGradient
     id="e"
     gradientUnits="userSpaceOnUse"
     x1="87.231171"
     x2="114.63911"
     y1="26.212187"
     y2="128.5">
    <stop
       offset="0"
       stop-color="#2c72c7"
       id="stop14" />
    <stop
       offset="1"
       stop-color="#00438a"
       id="stop16" />
  </linearGradient>
  <linearGradient
     id="f"
     gradientUnits="userSpaceOnUse"
     x1="114.37838"
     x2="112.9539"
     y1="42.286964"
     y2="132.19691">
    <stop
       offset="0"
       stop-color="#bbd6ff"
       id="stop19" />
    <stop
       offset="1"
       stop-color="#0057ae"
       id="stop21" />
  </linearGradient>
  <linearGradient
     id="g"
     gradientUnits="userSpaceOnUse"
     x1="124.5"
     x2="135.74562"
     y1="125"
     y2="2.9328029">
    <stop
       offset="0"
       stop-color="#fff"
       id="stop24" />
    <stop
       offset="1"
       stop-color="#fff"
       stop-opacity="0"
       id="stop26" />
  </linearGradient>
  <filter
     id="h">
    <feGaussianBlur
       stdDeviation=".385"
       id="feGaussianBlur29" />
  </filter>
  <linearGradient
     id="i"
     gradientUnits="userSpaceOnUse"
     x1="104"
     x2="104"
     y1="124.5"
     y2="61.61084">
    <stop
       offset="0"
       stop-color="#d4e2f3"
       id="stop32" />
    <stop
       offset="1"
       stop-color="#fff"
       stop-opacity="0"
       id="stop34" />
  </linearGradient>
  <g
     transform="matrix(0.12571453,0,0,0.12571453,-0.00151639,-30.968848)"
     id="g77">
    <g
       transform="matrix(0.26458333,0,0,0.32445256,6.482292,251.68381)"
       id="g43">
      <path
         inkscape:connector-curvature="0"
         d="m -16.499882,-9.9753983 143.181542,0 -1.2e-4,143.5289683 -143.18154,0 z"
         style="opacity:0.5;fill:none;stroke:#000000;stroke-width:7.22429705;stroke-linecap:round;stroke-linejoin:round"
         id="path37"
         sodipodi:nodetypes="ccccc" />
      <path
         style="fill:#ffffff"
         inkscape:connector-curvature="0"
         d="m -16.499882,-9.9753983 143.181542,0 -1.2e-4,143.1212283 -143.18154,0 z"
         id="path39"
         sodipodi:nodetypes="ccccc" />
      <path
         inkscape:connector-curvature="0"
         style="fill:url(#a)"
         d="m -8.499882,-3.7819413 127.181542,0 -1.2e-4,130.4039613 -127.18154,0 z"
         id="path41"
         sodipodi:nodetypes="ccccc" />
    </g>
    <path
       style="fill:none;stroke:#ffffff;stroke-width:2.01143241;stroke-linecap:round;stroke-linejoin:round"
       d="M 18.525391 1.4511719 L 16.011719 3.9648438 L 18.023438 3.9648438 L 18.021484 5.1992188 L 17.994141 5.1992188 L 18.007812 12.099609 L 17.994141 19 L 18.021484 19 L 18.023438 20.234375 L 16.011719 20.234375 L 18.525391 22.748047 L 21.039062 20.234375 L 19.029297 20.234375 L 19.013672 12.099609 L 19.029297 3.9648438 L 21.039062 3.9648438 L 18.525391 1.4511719 z "
       transform="matrix(2.1046361,0,0,2.1046361,0.01206217,246.34263)"
       id="path57" />
    <path
       style="fill:none;stroke:url(#linearGradient1030);stroke-width:2.01143241;stroke-linecap:round;stroke-linejoin:round"
       d="M 19.53125 1.1992188 L 17.017578 3.9648438 L 19.029297 3.9648438 L 19.027344 5.1992188 L 19 5.1992188 L 19.013672 12.099609 L 19 19 L 19.027344 19 L 19.029297 20.234375 L 17.017578 20.234375 L 19.53125 23 L 22.044922 20.234375 L 20.035156 20.234375 L 20.019531 12.099609 L 20.035156 3.9648438 L 22.044922 3.9648438 L 19.53125 1.1992188 z "
       transform="matrix(2.1046361,0,0,2.1046361,0.01206217,246.34263)"
       id="path59" />
    <path
       style="fill:url(#linearGradient1032);fill-rule:evenodd;stroke-width:0.12571453"
       d="M 19.53125 1.4511719 L 17.017578 3.9648438 L 19.029297 3.9648438 L 19.027344 5.1992188 L 19 5.1992188 L 19.013672 12.099609 L 19 19 L 19.027344 19 L 19.029297 20.234375 L 17.017578 20.234375 L 19.53125 22.748047 L 22.044922 20.234375 L 20.035156 20.234375 L 20.019531 12.099609 L 20.035156 3.9648438 L 22.044922 3.9648438 L 19.53125 1.4511719 z "
       id="path61"
       transform="matrix(2.1046361,0,0,2.1046361,0.01206217,246.34263)" />
    <path
       id="path63"
       d="m 104,124.5 -20,-20 h 16 v -64 h 8 v 64 h 16 z"
       style="opacity:0.89839603;fill:none;stroke:url(#linearGradient1034);filter:url(#h)"
       inkscape:connector-curvature="0"
       transform="matrix(0.26458333,0,0,-0.26458333,13.60198,282.33622)" />
    <path
       id="path65"
       d="m 41.118647,249.3956 -5.291666,5.29166 h 4.233333 v 14.59343 c 0.722114,-0.18324 1.429851,-0.38502 2.116667,-0.60358 v -13.98985 h 4.233333 z"
       style="fill:url(#linearGradient1036);fill-rule:evenodd;stroke-width:0.26458332"
       inkscape:connector-curvature="0" />
    <g
       id="g1140"
       transform="matrix(0.171875,0,0,0.171875,4.2193498,243.727)">
      <rect
         id="rect44"
         y="76.444237"
         x="36.747013"
         width="122.44982"
         ry="3.5127761"
         rx="4.0482512"
         height="12.244893"
         style="fill:#696969;stroke-width:7.95452976" />
      <rect
         id="rect46"
         y="-159.19685"
         x="76.444237"
         width="48.979813"
         transform="rotate(90)"
         ry="3.5128078"
         rx="3.6412737"
         height="12.244989"
         style="fill:#696969;stroke-width:7.95452976" />
      <rect
         id="rect48"
         y="149.91417"
         x="71.95063"
         width="50.511265"
         ry="3.5127842"
         rx="3.7551267"
         height="12.244909"
         style="stroke-width:7.95452976;fill:#2568b6;fill-opacity:1" />
      <rect
         id="rect50"
         y="174.40407"
         x="36.747013"
         width="122.44982"
         ry="2.7396357"
         rx="3.5812089"
         height="12.24498"
         style="stroke-width:7.95452976;fill:#2568b6;fill-opacity:1" />
      <rect
         id="rect52"
         y="198.89418"
         x="61.236984"
         width="73.46991"
         ry="3.5127842"
         rx="5.4619308"
         height="12.244909"
         style="stroke-width:7.95452976;fill:#2568b6;fill-opacity:1" />
      <rect
         id="rect54"
         y="235.62901"
         x="61.236973"
         width="73.46991"
         ry="3.5127842"
         rx="5.4619308"
         height="12.244909"
         style="stroke-width:7.95452976;fill:#2568b6;fill-opacity:1" />
      <rect
         id="rect56"
         y="-73.481888"
         x="198.89394"
         width="48.979927"
         transform="rotate(90)"
         ry="3.5127842"
         rx="3.6412816"
         height="12.244909"
         style="stroke-width:7.95452976;fill:#2568b6;fill-opacity:1" />
      <rect
         id="rect58"
         y="-134.70689"
         x="198.89394"
         width="48.979927"
         transform="rotate(90)"
         ry="3.5127842"
         rx="3.6412816"
         height="12.244909"
         style="stroke-width:7.95452976;fill:#2568b6;fill-opacity:1" />
    </g>
  </g>
</svg>
